X: 47
T: Zongliangshang shangdiao rengbuxi niang
%%abc-version 2.0
%%abcx-abcm2ps-target-version 5.9.1 (29 Sep 2008)
%%abc-creator hum2abc beta
%%abcx-conversion-date 2013/10/02 07:52:29
%%abc-edited-by Helmut Schaffrath
%%humdrum-veritas 476779150
%%humdrum-veritas-data 4127142913
%%continueall 1
%%barnumbers 0
L: 1/16
M: 2/4
K: F
d2c4d f [I:setbarnb 1]| 
A2 A G F2 D2 | 
[M:1/4]F F F G | 
[M:2/4]A2 A c G F2 D | 
C8 | 
d2c4d f | 
A2 A G F2 D2 | 
[M:1/4]F F F G | 
[M:2/4]A2 A c G F2 D | 
C8 |]  



